src/assets/result_success.svg

<svg viewBox="0 0 200 200" version="1.1" xmlns="http://www.w3.org/2000/svg" xmlns:xlink="http://www.w3.org/1999/xlink">
  <title>结果-成功</title>
  <g id="页面-1" stroke="none" stroke-width="1" fill="none" fill-rule="evenodd">
      <g id="结果-成功">
          <g>
              <path d="M100,200 C44.76875,200 0,155.23125 0,100 C0,44.76875 44.76875,0 100,0 C155.23125,0 200,44.76875 200,100 C200,155.23125 155.23125,200 100,200 Z M90.31875,126.3375 L61.70625,97.3875 L42.85625,115.40625 C56.56875,122.78125 75.79375,136.26875 92.25,157.14375 C103.875,135.28125 139.7125,90.5625 157.14375,86.58125 C154.33125,75.30625 152.7375,54.15625 157.14375,42.85625 C121.39375,66.43125 90.31875,126.3375 90.31875,126.3375 Z" id="形状" fill="rgba(58,209,154)" fill-rule="nonzero"></path>
          </g>
      </g>
  </g>
</svg>

<svg viewBox="0 0 200 200" xmlns="http://www.w3.org/2000/svg"><path d="M100 200C44.769 200 0 155.231 0 100S44.769 0 100 0s100 44.769 100 100-44.769 100-100 100zm-9.681-73.662l-28.613-28.95-18.85 18.018c13.713 7.375 32.938 20.863 49.394 41.738 11.625-21.863 47.463-66.582 64.894-70.563-2.813-11.275-4.406-32.425 0-43.725-35.75 23.575-66.825 83.482-66.825 83.482z" fill="rgba(58,209,154)" fill-rule="nonzero"/></svg>
